X:136
T:Milliner's Shop. JJo.136, The
B:J.Johnson Choice Collection Vol 8 1758
Z:vmp.Simon Wilson 2013 www.village-music-project.org.uk
Z:Dance added by John Chambers 2017
M:6/8
L:1/8
%Q:3/8=100
K:Bb
|:\
B>cB F>DF | B>cB F>DF |\
B>FB d>Bd | f3F3 :|\
|:\
f>gf dbd | cac BgB |
f>gf dbd | Td3c3 |\
f>gf dbd | cac AGF |\
dcB cBA | B3B,3 :|
%%begintext align
%% The 1st and 2d Men foot it to
%% their Partners .| then foot it
%% Sideways, the We. do the same at the
%% same time ..| Cross over half
%% figure .| Right and Left ..|
%% foot it contrary Corners but
%% not turn ..| Lead out Sides ..|
%%endtext
